X:278
T:Heer Halewijn zong een liedekijn
Z:Jack Campin, http://www.campin.me.uk/
F:Jack Campin's Nine-Note Tunebook
% last edit 20-01-2014
G:old Flemish magical ballad
N:the story is much like the English "Outlandish Knight"
M:3/4
L:1/4
Q:1/4=120
K:GMix
G|GEF| G2 G|(AG)F| E3 |
  GFE|(DC)D| EF G| A3 |
  ABA| G2 A| GE F|HG2:|

